packages/foundations/assets/icons/functional/images/audio & video/skip_forward_28_filled.svg

<svg width="28" height="28" viewBox="0 0 28 28" fill="none" xmlns="http://www.w3.org/2000/svg">
<g clip-path="url(#clip0_2202_605)">
<path fill-rule="evenodd" clip-rule="evenodd" d="M6.36395 19.9395V8.06053C6.36395 7.13253 7.13195 6.36353 8.03395 6.36353C8.37895 6.36353 8.72395 6.46953 9.01395 6.65553L17.526 12.6215C17.977 12.9395 18.242 13.4435 18.242 14.0005C18.242 14.5575 17.977 15.0605 17.526 15.3795L9.01495 21.3445C8.72203 21.5324 8.38195 21.6337 8.03395 21.6365C7.10595 21.6365 6.36395 20.8675 6.36395 19.9395ZM19.939 19.9395V8.06053C19.939 7.58353 20.31 7.21253 20.788 7.21253C21.265 7.21253 21.636 7.58353 21.636 8.06053V19.9405C21.6373 20.0523 21.6163 20.1631 21.5741 20.2666C21.532 20.3701 21.4696 20.4641 21.3906 20.5431C21.3116 20.6222 21.2175 20.6846 21.114 20.7267C21.0106 20.7688 20.8997 20.7899 20.788 20.7885C20.6761 20.79 20.565 20.7691 20.4613 20.7269C20.3576 20.6848 20.2635 20.6223 20.1843 20.5432C20.1052 20.464 20.0427 20.3698 20.0006 20.2662C19.9584 20.1625 19.9375 20.0514 19.939 19.9395Z" fill="#1A1C1F"/>
</g>
<defs>
<clipPath id="clip0_2202_605">
<rect width="28" height="28" fill="white"/>
</clipPath>
</defs>
</svg>

<svg xmlns="http://www.w3.org/2000/svg" width="28" height="28" fill="none"><g clip-path="url(#a)"><path fill="#1A1C1F" fill-rule="evenodd" d="M6.364 19.94V8.06c0-.927.768-1.696 1.67-1.696.345 0 .69.106.98.292l8.512 5.966c.451.318.716.822.716 1.379 0 .556-.265 1.06-.716 1.379l-8.511 5.964c-.293.188-.633.29-.981.293-.928 0-1.67-.77-1.67-1.698m13.575 0V8.06c0-.476.371-.847.849-.847.477 0 .848.37.848.848v11.88a.84.84 0 0 1-.848.848.837.837 0 0 1-.849-.85" clip-rule="evenodd"/></g><defs><clipPath id="a"><path fill="#fff" d="M0 0h28v28H0z"/></clipPath></defs></svg>
